X:621
T:Irish Trot.
C:John Malchair's Third Collection of Tunes
F:https://www.vwml.org/record/Malchair/3619/p62
F:www.vwml.org/topics/historic-dance-and-tune-books/Malchair
Z:Eric Conrad Feb 2020
M:C|    % labelled modern notation but crossed out
L:1/8
W:(crossed out in manuscript)
K:Fmaj
"^in modern notation."fg ag f2c2 | efgf e3e | ffed c2e2 | A2B2 c3B |
cdef ecA2 | GABc BGE2 | FGAB c2g2 | efgf f4 |]

